svg/u2734.svg

<svg viewBox="0 0 128 128" xmlns="http://www.w3.org/2000/svg">
  <path d="M110.8,23.1L81.7,63.5c-0.4,0.7-0.4,1.5,0,2.2l29.1,42.3c1.2,1.8-1,3.9-2.8,2.8L65.1,82.2 c-0.7-0.4-1.5-0.4-2.2,0L20,110.8c-1.8,1.2-3.9-1-2.8-2.8l29.1-42.3c0.4-0.7,0.4-1.5,0-2.2L17.2,23.1c-1.2-1.8,1-3.9,2.8-2.8 l42.9,26.6c0.7,0.4,1.5,0.4,2.2,0L108,20.3C109.8,19.2,111.9,21.3,110.8,23.1z" fill="#F77E00"/>
  <path d="M66,5.6l8.4,46.5c0.2,0.8,0.8,1.4,1.5,1.5l46.5,8.4c2.1,0.5,2.1,3.5,0,3.9l-46.6,8.4 c-0.8,0.2-1.4,0.8-1.5,1.5L66,122.4c-0.4,2.1-3.5,2.1-3.9,0l-8.4-46.6c-0.2-0.8-0.8-1.4-1.5-1.5L5.6,66c-2.1-0.4-2.1-3.5,0-3.9 l46.5-8.4c0.8-0.2,1.4-0.8,1.5-1.5L62,5.6C62.5,3.5,65.5,3.5,66,5.6z" fill="#FF9800"/>
  <path d="M52.65,57.02c-2.26,1.44-6.3,1.44-6.3,3.18 c0,1.28,2.31,1.28,4.77,1.28c3.49-0.05,6.41-0.36,7.84-1.54c1.44-1.18,1.9-3.13,2.05-7.07c0.15-4.72-0.21-5.54-1.38-5.54 C58.08,47.33,57.11,54.25,52.65,57.02z" opacity="0.75" fill="#FFBD52" enable-background="new "/>
</svg>

<svg viewBox="0 0 128 128" xmlns="http://www.w3.org/2000/svg">
  <defs/>
  <path d="M110.8,23.1 L81.7,63.5 C81.3,64.2 81.3,65 81.7,65.7 L110.8,108 C112,109.8 109.8,111.9 108,110.8 L65.1,82.2 C64.4,81.8 63.6,81.8 62.9,82.2 L20,110.8 C18.2,112 16.1,109.8 17.2,108 L46.3,65.7 C46.7,65 46.7,64.2 46.3,63.5 L17.2,23.1 C16,21.3 18.2,19.2 20,20.3 L62.9,46.9 C63.6,47.3 64.4,47.3 65.1,46.9 L108,20.3 C109.8,19.2 111.9,21.3 110.8,23.1 Z" fill="#F77E00"/>
  <path d="M66,5.6 L74.4,52.1 C74.6,52.9 75.2,53.5 75.9,53.6 L122.4,62 C124.5,62.5 124.5,65.5 122.4,65.9 L75.8,74.3 C75,74.5 74.4,75.1 74.3,75.8 L66,122.4 C65.6,124.5 62.5,124.5 62.1,122.4 L53.7,75.8 C53.5,75 52.9,74.4 52.2,74.3 L5.6,66 C3.5,65.6 3.5,62.5 5.6,62.1 L52.1,53.7 C52.9,53.5 53.5,52.9 53.6,52.2 L62,5.6 C62.5,3.5 65.5,3.5 66,5.6 Z" fill="#FF9800"/>
  <path d="M52.65,57.02 C50.39,58.46 46.35,58.46 46.35,60.2 C46.35,61.48 48.66,61.48 51.12,61.48 C54.61,61.43 57.53,61.12 58.96,59.94 C60.4,58.76 60.86,56.81 61.01,52.87 C61.16,48.15 60.8,47.33 59.63,47.33 C58.08,47.33 57.11,54.25 52.65,57.02 Z" fill="#FFBD52" opacity="0.75"/>
</svg>
